X: 15045
T: Georgia's Gift
R: reel
M: 4/4
K: Eminor
(ED)|:EEdE cEBE|EEBE FEDF|EEdE cEB(E|FE)DF E2 ~(ED)|
EEdE cEBE|EEBE FEDF|EFGA Bcdf|1 gfed e2 ED:|2 gfed e2(ef||
|:gf)e(f gf)e(f|gf)ed B2 (ef|gf)e(f gf)e(f|ga)ba g2(ef|
gf)e(f gf)e(f|gf)ed B2 BA|BAGA BAGE|1 EDB,D E2 ef:|2 EDB,D E2~(ED)||

